!!!!SEGMENT: pl-cz--iii-114--009_dankowski-adalbert--vesperae-d-magnificat.krn
!!!cenid: 18xx:814
!!!COM: Dankowski, Adalbert
!!!COM-rismid: pe30000793
!!!CDT: ~1760-~1836
!!!CNT: Polish
!!!OPR: Vesperae D
!!!OTL: Magnificat
!!!OMV: 009
!!!PDT:
!!!AGN: Sacred; Vespers
!!!SMS-siglum: PL-CZ
!!!SMS-shelfmark: III-114
!!!SMS-shelfwork: 001-009 M
!!!SMS-variant:
!!!SMS-altvar:
!!!NIFC-rismid: 300000113
!!!URL-scan: http://repozytorium.nifc.pl/skany/pl-cz-nut--iii-114
!!!ONB-nifc: UWAGA: części Vesperae: Dixit Dominus, Juravit Dominus, Judicabit, Gloria, Laudate pueri, Laetatus sum, Nisi Dominus, Lauda Jerusalem, Magnificat, Et misericordia, Gloria. Uwaga: brak partii vl 1, fl 1 i 2
!!!key: D
**kern	**fba	**dynam	**kern	**dynam	**kern	**kern	**text	**kern	**text	**kern	**text	**kern	**text	**kern	**kern	**kern	**kern
*	*	*	*group4	*	*group4	*group3	*	*group3	*	*group3	*	*group3	*	*group2	*group2	*group1	*group1
*part11	*part11	*part11	*part10	*part10	*part9	*part8	*part8	*part7	*part7	*part6	*part6	*part5	*part5	*part4	*part3	*part2	*part1
*staff11	*	*	*staff10	*	*staff9	*staff8	*staff8	*staff7	*staff7	*staff6	*staff6	*staff5	*staff5	*staff4	*staff3	*staff2	*staff1
*I"Organo	*	*	*I"Violino Secondo	*	*I"[Violino Primo]	*I"Baſso	*	*I"Tenore	*	*I"Alto	*	*I"Canto	*	*I"Cornu Secondo Ex D:	*I"Cornu Primo Ex D:	*I"[Flauto Secondo]	*I"[Flauto Primo]
*I'org	*	*	*I'vl 2	*	*I'[vl 1]	*I'B	*	*I'T	*	*I'A	*	*I'S	*	*I'cor 2 in D	*I'cor 1 in D	*I'[fl 2]	*I'[fl 1]
*Iorgan	*	*	*Ivioln	*	*Ivioln	*Ibass	*	*Itenor	*	*Ialto	*	*Isoprn	*	*Icor	*Icor	*Iflt	*Iflt
*ICklav	*	*	*ICstr	*	*ICstr	*ICvox	*	*ICvox	*	*ICvox	*	*ICvox	*	*ICbras	*ICbras	*ICww	*ICww
*IGcont	*	*	*	*	*	*IGcoro	*	*IGcoro	*	*IGcoro	*	*IGcoro	*	*	*	*	*
*clefF4	*	*	*clefG2	*	*clefG2	*clefF4	*	*clefC4	*	*clefC3	*	*clefC1	*	*clefG2	*clefG2	*clefG2	*clefG2
*	*	*	*	*	*	*	*	*	*	*	*	*	*	*ITrd-1c-2	*ITrd-1c-2	*	*
*k[f#c#]	*	*	*k[f#c#]	*	*k[f#c#]	*k[f#c#]	*	*k[c#f#]	*	*k[f#c#]	*	*k[f#c#]	*	*k[f#c#]	*k[f#c#]	*k[f#c#]	*k[f#c#]
*D:	*	*	*D:	*	*D:	*D:	*	*D:	*	*D:	*	*D:	*	*	*	*D:	*D:
*M4/4	*	*	*M4/4	*	*M4/4	*M4/4	*	*M4/4	*	*M4/4	*	*M4/4	*	*M4/4	*M4/4	*M4/4	*M4/4
*met(C.)	*	*	*met(C.)	*	*met(C.)	*met(C.)	*	*met(C.)	*	*met(C.)	*	*met(C.)	*	*met(C.)	*met(C.)	*met(C.)	*met(C.)
=1	=1	=1	=1	=1	=1	=1	=1	=1	=1	=1	=1	=1	=1	=1	=1	=1	=1
*	*	*	*	*	*	*2\right	*	*2\right	*	*2\right	*	*2\right	*	*	*	*	*
!	!	!	!	!	!	!	!	!	!	!	!	!LO:TX:t=P:problem=znaki f# cc#	!	!	!	!	!
!LO:TX:a:i:rj:t=adag&colon; tutti	!	!	!LO:TX:a:i:rj:t=adag&colon;	!LO:DY:t=f&colon;	!	!LO:TX:a:i:rj:t=adagio&colon;	!	!LO:TX:a:i:rj:t=adag&colon;	!	!LO:TX:a:i:rj:t=adagio&colon;	!	!LO:TX:a:i:rj:t=adag&colon;	!	!LO:TX:a:i:t=adag&colon;	!LO:TX:a:i:t=adag&colon;	!	!
8D\L	.	.	8.ff#\L	f	1ryy	2D\	Ma-	2d\	Ma-	2a\	Ma-	2ff#\	Ma-	4ff#\	4aa\	1ryy	1ryy
8D\	.	.	.	.	.	.	.	.	.	.	.	.	.	.	.	.	.
.	.	.	32dd\LL	.	.	.	.	.	.	.	.	.	.	.	.	.	.
.	.	.	32ee\JJJ	.	.	.	.	.	.	.	.	.	.	.	.	.	.
8D\	.	.	8ff#\L	.	.	.	.	.	.	.	.	.	.	4ff#\	4aa\	.	.
8D\J	.	.	8ff#\J	.	.	.	.	.	.	.	.	.	.	.	.	.	.
8D\L	6 4	.	8gg\L	.	.	16D\	-gni-	16d\	-gni-	16b\	-gni-	16gg\	-gni-	8gg\L	8bb\L	.	.
.	.	.	.	.	.	16D\	-fi-	16d\	-fi-	16b\	-fi-	16gg\	-fi-	.	.	.	.
8D\J	5 3	.	8ff#\J	.	.	8D\	-cat	8d\	-cat	8a\	-cat	8ff#\	-cat	8ff#\J	8aa\J	.	.
4r	.	.	8ff#\L	.	.	4r	.	4r	.	4r	.	4r	.	4r	4r	.	.
.	.	.	16ee\L	.	.	.	.	.	.	.	.	.	.	.	.	.	.
.	.	.	16dd\JJ	.	.	.	.	.	.	.	.	.	.	.	.	.	.
=2	=2	=2	=2	=2	=2	=2	=2	=2	=2	=2	=2	=2	=2	=2	=2	=2	=2
*	*	*	*	*	*	*	*ij	*	*ij	*	*ij	*	*ij	*	*	*	*
!LO:TX:t=P:problem=mixed beam	!	!	!	!	!	!	!	!	!	!	!	!	!	!	!	!	!
8G\L	6	.	8b/L	.	1ryy	4G\	Ma-	4B\	Ma-	4g\	Ma-	4ee\	Ma-	4ee\	4gg\	1ryy	1ryy
8G\	.	.	16b/L	.	.	.	.	.	.	.	.	.	.	.	.	.	.
.	.	.	16g/JJ	.	.	.	.	.	.	.	.	.	.	.	.	.	.
8A\	4	.	16g/LL	.	.	8A\	-gni-	8A\	-gni-	8f#\	-gni-	8dd\	-gni-	8dd\L	8ff#\L	.	.
.	.	.	16f#/	.	.	.	.	.	.	.	.	.	.	.	.	.	.
8AA/J	3	.	16f#/	.	.	8AA/	-fi-	8A\	-fi-	8e\	-fi-	8cc#\	-fi-	8a\J	8ee\J	.	.
.	.	.	16e/JJ	.	.	.	.	.	.	.	.	.	.	.	.	.	.
4D\	.	.	8e/L	.	.	4D\	-cat	4A\	-cat	4f#\	-cat	4dd\	-cat	4f#/	4dd\	.	.
*	*	*	*	*	*	*	*Xij	*	*Xij	*	*Xij	*	*Xij	*	*	*	*
.	.	.	32f#/LL	.	.	.	.	.	.	.	.	.	.	.	.	.	.
.	.	.	32g/	.	.	.	.	.	.	.	.	.	.	.	.	.	.
.	.	.	32f#/	.	.	.	.	.	.	.	.	.	.	.	.	.	.
.	.	.	32e/JJJ	.	.	.	.	.	.	.	.	.	.	.	.	.	.
!	!	!	!	!	!	!	!	!	!	!LO:TX:a:i:t=Solo	!	!LO:TX:a:i:t=Solo&colon;	!	!	!	!	!
4r	.	.	4d/	.	.	4r	.	4r	.	4r	.	4r	.	4r	4r	.	.
=3	=3	=3	=3	=3	=3	=3	=3	=3	=3	=3	=3	=3	=3	=3	=3	=3	=3
!	!	!	!	!LO:DY:t=p&colon;	!	!	!	!	!	!	!	!	!	!	!	!	!
0r	.	.	8d/L	p	1ryy	0r	.	0r	.	4a\	A-	4ff#\	a-	0r	0r	1ryy	1ryy
.	.	.	8d/	.	.	.	.	.	.	.	.	.	.	.	.	.	.
.	.	.	8d/	.	.	.	.	.	.	16dd\LL	-ni-	16ff#\LL	-ni-	.	.	.	.
.	.	.	.	.	.	.	.	.	.	16cc#\JJ	.	16aa\JJ	.	.	.	.	.
.	.	.	8d/J	.	.	.	.	.	.	16b\LL	-ma	16gg\LL	-ma	.	.	.	.
.	.	.	.	.	.	.	.	.	.	16a\JJ	.	16ff#\JJ	.	.	.	.	.
!	!	!	!	!	!	!	!	!	!	!LO:LB:g=original	!	!	!	!	!	!	!
.	.	.	8d/L	.	.	.	.	.	.	8.a\L	me-	8.ff#\L	me-	.	.	.	.
.	.	.	8d/	.	.	.	.	.	.	.	.	.	.	.	.	.	.
.	.	.	.	.	.	.	.	.	.	16f#\Jk	.	16dd\Jk	.	.	.	.	.
!	!	!	!	!	!	!	!	!	!	!	!	!LO:LB:g=original	!	!	!	!	!
.	.	.	8a/	.	.	.	.	.	.	16a\LL	.	16ff#\LL	.	.	.	.	.
.	.	.	.	.	.	.	.	.	.	16g\	.	16ee\	.	.	.	.	.
.	.	.	8A/J	.	.	.	.	.	.	16f#\	.	16dd\	.	.	.	.	.
.	.	.	.	.	.	.	.	.	.	16g\JJ	.	16ee\JJ	.	.	.	.	.
=4	=4	=4	=4	=4	=4	=4	=4	=4	=4	=4	=4	=4	=4	=4	=4	=4	=4
*	*	*	*tremolo	*	*	*	*	*	*	*	*	*	*	*	*	*	*
.	.	.	8d/L	.	1ryy	.	.	.	.	16f#\LL	-a	16dd\LL	-a	.	.	1ryy	1ryy
.	.	.	.	.	.	.	.	.	.	16e\JJ	.	16cc#\JJ	.	.	.	.	.
.	.	.	8d/	.	.	.	.	.	.	16f#\LL	a-	16dd\LL	a-	.	.	.	.
.	.	.	.	.	.	.	.	.	.	16g\JJ	.	16ee\JJ	.	.	.	.	.
.	.	.	8d/	.	.	.	.	.	.	16a\LL	-ni-	16ff#\LL	-ni-	.	.	.	.
.	.	.	.	.	.	.	.	.	.	16f#\JJ	.	16dd\JJ	.	.	.	.	.
.	.	.	8d/J	.	.	.	.	.	.	16a\LL	-ma	16ff#\LL	-ma	.	.	.	.
.	.	.	.	.	.	.	.	.	.	16f#\JJ	.	16dd\JJ	.	.	.	.	.
.	.	.	8A/L	.	.	.	.	.	.	8e\	me-	8ee\	me-	.	.	.	.
.	.	.	8A/	.	.	.	.	.	.	8g\	-a	8ee\	-a	.	.	.	.
.	.	.	8A/	.	.	.	.	.	.	8g\	Do-	8.ee\	Do-	.	.	.	.
.	.	.	8A/J	.	.	.	.	.	.	16a\LL	-mi-	.	.	.	.	.	.
.	.	.	.	.	.	.	.	.	.	16g\JJ	.	16ee\	-mi-	.	.	.	.
*	*	*	*Xtremolo	*	*	*	*	*	*	*	*	*	*	*	*	*	*
!	!	!	!LO:LB:g=original	!	!	!	!	!	!	!	!	!	!	!	!	!	!
=5	=5	=5	=5	=5	=5	=5	=5	=5	=5	=5	=5	=5	=5	=5	=5	=5	=5
*	*	*	*^	*	*	*	*	*	*	*	*	*	*	*	*	*	*
*tremolo	*	*	*	*	*	*	*	*	*	*	*	*	*	*	*	*	*	*
!	!	!	!	!	!LO:DY:t=f&colon;	!	!	!	!	!	!	!	!	!	!	!	!	!
8D/L	.	.	8d/L	8ryy	f	1ryy	4D\	a-	4A\	a-	8f#\	-num	8dd\	-num	4dd\	4ff#\	1ryy	1ryy
8D/	.	.	8a/	8f#\L	.	.	.	.	.	.	8f#\	a-	8dd\	a-	.	.	.	.
8D/	.	.	8a/	8f#\	.	.	8D\	-ni-	8A\	-ni-	8f#\	-ni-	8dd\	-ni-	4dd\	4ff#\	.	.
8D/J	.	.	8a/J	8f#\J	.	.	8D\	-ma	8A\	-ma	8f#\	-ma	8dd\	-ma	.	.	.	.
*Xtremolo	*	*	*	*	*	*	*	*	*	*	*	*	*	*	*	*	*	*
8C#/L	6 5	.	8a/L	8e\L	.	.	4C#/	me-	4A\	me-	4g\	me-	4ee\	me-	4a/	4ee\	.	.
8C#/	.	.	8a/	8e\	.	.	.	.	.	.	.	.	.	.	.	.	.	.
8D/	.	.	8a/	8f#\	.	.	4D\	-a	4A\	-a	8f#\L	-a	8dd\L	-a	8dd\L	8ff#\L	.	.
8D/J	.	.	8a/J	8f#\J	.	.	.	.	.	.	8a\J	.	8ff#\J	.	8ff#\J	8aa\J	.	.
*	*	*	*v	*v	*	*	*	*	*	*	*	*	*	*	*	*	*	*
!	!	!	!	!	!	!LO:LB:g=original	!	!LO:LB:g=original	!	!LO:LB:g=original	!	!	!	!	!	!	!
=6	=6	=6	=6	=6	=6	=6	=6	=6	=6	=6	=6	=6	=6	=6	=6	=6	=6
*	*	*	*2\right	*	*	*	*	*	*	*	*	*	*	*	*	*	*
*	*	*	*tremolo	*	*	*	*	*	*	*	*	*	*	*	*	*	*
8BB/L	7	.	8dd\L	.	1ryy	4B\	Do-	4f#\	Do-	4a\	Do-	4dd\	Do-	4ff#\	4aa\	1ryy	1ryy
8BB/	.	.	8dd\	.	.	.	.	.	.	.	.	.	.	.	.	.	.
8BB/	6\	.	8dd\	.	.	4B\	-mi-	4e\	-mi-	4g#X\	-mi-	4dd\	-mi-	4ee\	4gg#X\	.	.
8BB/J	.	.	8dd\J	.	.	.	.	.	.	.	.	.	.	.	.	.	.
*	*	*	*Xtremolo	*	*	*	*	*	*	*	*	*	*	*	*	*	*
4AA/	.	.	4cc#\	.	.	4A\	-num	4e\	-num	4a\	-num	4cc#\	-num	4a/	4aa\	.	.
!	!	!	!	!	!	!	!	!	!	!LO:TX:b:i:t=Verte	!	!	!	!	!	!	!
4r	.	.	4r	.	.	4r	.	4r	.	4r	.	4r	.	4r	4r	.	.
!LO:LB:g=original	!	!	!	!	!	!	!	!	!	!LO:PB:g=original	!	!LO:LB:g=original	!	!LO:LB:g=original	!LO:LB:g=original	!	!
=7||	=7||	=7||	=7||	=7||	=7||	=7||	=7||	=7||	=7||	=7||	=7||	=7||	=7||	=7||	=7||	=7||	=7||
*k[f#c#]	*	*	*k[f#c#]	*	*	*k[f#c#]	*	*k[c#f#]	*	*k[f#c#]	*	*k[f#c#]	*	*k[f#c#]	*k[f#c#]	*	*
*M4/4	*	*	*M4/4	*	*	*M4/4	*	*M4/4	*	*M4/4	*	*M4/4	*	*M4/4	*M4/4	*	*
*met(C.)	*	*	*met(C.)	*	*	*met(C.)	*	*met(C.)	*	*met(C.)	*	*met(C.)	*	*met(C.)	*met(C.)	*	*
!LO:TX:a:i:rj:t=allegro	!	!LO:DY:t=pio&colon;	!LO:TX:a:i:t=allegro	!LO:DY:t=p&colon;	!	!	!	!	!	!LO:TX:a:i:t=Allegro&colon;	!	!	!	!	!	!	!LO:TX:a:B:t=allegro
8D\L	.	p	4f#/	p	1ryy	00r	.	00r	.	4d\	Et	4f#/	&	00r	00r	1ryy	1ryy
8D\	.	.	.	.	.	.	.	.	.	.	.	.	.	.	.	.	.
8D\	.	.	2f#/	.	.	.	.	.	.	2d\	ex-	2f#/	ex-	.	.	.	.
8D\J	.	.	.	.	.	.	.	.	.	.	.	.	.	.	.	.	.
*2\right	*	*	*	*	*	*	*	*	*	*	*	*	*	*	*	*	*
*tremolo	*	*	*	*	*	*	*	*	*	*	*	*	*	*	*	*	*
8D\L	.	.	.	.	.	.	.	.	.	.	.	.	.	.	.	.	.
8D\	.	.	.	.	.	.	.	.	.	.	.	.	.	.	.	.	.
8D\	.	.	8g/L	.	.	.	.	.	.	8e\L	-ul-	8g/L	-ult-	.	.	.	.
8D\J	.	.	8f#/J	.	.	.	.	.	.	8d\J	.	8f#/J	.	.	.	.	.
=8	=8	=8	=8	=8	=8	=8	=8	=8	=8	=8	=8	=8	=8	=8	=8	=8	=8
8D\L	.	.	8b/L	.	1ryy	.	.	.	.	8g\L	-ta-	8b\L	-a-	.	.	1ryy	1ryy
8D\	.	.	8a/J	.	.	.	.	.	.	8f#\J	.	8a\J	.	.	.	.	.
8D\	.	.	4a/	.	.	.	.	.	.	4f#\	-vit	4a\	-vit	.	.	.	.
8D\J	.	.	.	.	.	.	.	.	.	.	.	.	.	.	.	.	.
8D\L	.	.	2r	.	.	.	.	.	.	2r	.	2r	.	.	.	.	.
8D\	.	.	.	.	.	.	.	.	.	.	.	.	.	.	.	.	.
8D\	.	.	.	.	.	.	.	.	.	.	.	.	.	.	.	.	.
8D\J	.	.	.	.	.	.	.	.	.	.	.	.	.	.	.	.	.
=9	=9	=9	=9	=9	=9	=9	=9	=9	=9	=9	=9	=9	=9	=9	=9	=9	=9
*	*	*	*	*	*	*	*	*	*	*	*ij	*	*ij	*	*	*	*
8D\L	.	.	4dd\	.	1ryy	.	.	.	.	4f#\	et	4dd\	et	.	.	1ryy	1ryy
8D\	.	.	.	.	.	.	.	.	.	.	.	.	.	.	.	.	.
8D\	.	.	2dd\	.	.	.	.	.	.	2f#\	ex-	2dd\	ex-	.	.	.	.
8D\J	.	.	.	.	.	.	.	.	.	.	.	.	.	.	.	.	.
8D\L	.	.	.	.	.	.	.	.	.	.	.	.	.	.	.	.	.
8D\	.	.	.	.	.	.	.	.	.	.	.	.	.	.	.	.	.
8D\	.	.	8ee\L	.	.	.	.	.	.	8g\L	-ul-	8ee\L	-ult-	.	.	.	.
8D\J	.	.	8dd\J	.	.	.	.	.	.	8f#\J	.	8dd\J	.	.	.	.	.
=10	=10	=10	=10	=10	=10	=10	=10	=10	=10	=10	=10	=10	=10	=10	=10	=10	=10
8D\L	.	.	8gg\L	.	1ryy	.	.	.	.	8b\L	-ta-	8gg\L	-a-	.	.	1ryy	1ryy
8D\	.	.	8ff#\J	.	.	.	.	.	.	8a\J	.	8ff#\J	.	.	.	.	.
8D\	.	.	4ff#\	.	.	.	.	.	.	4a\	-vit	4ff#\	-vit	.	.	.	.
8D\J	.	.	.	.	.	.	.	.	.	.	.	.	.	.	.	.	.
8D\L	.	.	2r	.	.	.	.	.	.	2r	.	2r	.	.	.	.	.
8D\	.	.	.	.	.	.	.	.	.	.	.	.	.	.	.	.	.
8D\	.	.	.	.	.	.	.	.	.	.	.	.	.	.	.	.	.
8D\J	.	.	.	.	.	.	.	.	.	.	.	.	.	.	.	.	.
!	!	!	!LO:LB:g=original	!	!	!	!	!	!	!	!	!	!	!	!	!	!
=11	=11	=11	=11	=11	=11	=11	=11	=11	=11	=11	=11	=11	=11	=11	=11	=11	=11
8D\L	.	.	4ff#\	.	1ryy	00r	.	00r	.	2a\	et	4ff#\	et	00r	00r	1ryy	1ryy
8D\	.	.	.	.	.	.	.	.	.	.	.	.	.	.	.	.	.
8D\	.	.	2ff#\	.	.	.	.	.	.	.	.	2ff#\	ex-	.	.	.	.
8D\J	.	.	.	.	.	.	.	.	.	.	.	.	.	.	.	.	.
8D\L	.	.	.	.	.	.	.	.	.	4a\	ex-	.	.	.	.	.	.
8D\	.	.	.	.	.	.	.	.	.	.	.	.	.	.	.	.	.
8D\	.	.	8ff#\L	.	.	.	.	.	.	4a\	-ul-	4ff#\	-ul-	.	.	.	.
8D\J	.	.	8aa\J	.	.	.	.	.	.	.	.	.	.	.	.	.	.
=12	=12	=12	=12	=12	=12	=12	=12	=12	=12	=12	=12	=12	=12	=12	=12	=12	=12
8D\L	6_ 4_	.	4gg\	.	1ryy	.	.	.	.	2b\	-ta-	4gg\	-ta-	.	.	1ryy	1ryy
8D\	.	.	.	.	.	.	.	.	.	.	.	.	.	.	.	.	.
8D\	.	.	2gg\	.	.	.	.	.	.	.	.	2gg\	-vit	.	.	.	.
*	*	*	*	*	*	*	*	*	*	*	*	*	*Xij	*	*	*	*
8D\J	.	.	.	.	.	.	.	.	.	.	.	.	.	.	.	.	.
8D\L	.	.	.	.	.	.	.	.	.	4b\	-vit	.	.	.	.	.	.
*	*	*	*	*	*	*	*	*	*	*	*Xij	*	*	*	*	*	*
8D\	.	.	.	.	.	.	.	.	.	.	.	.	.	.	.	.	.
!	!	!	!	!	!	!	!	!	!	!	!	!LO:LB:g=original	!	!	!	!	!
8D\	.	.	8bb\L	.	.	.	.	.	.	4b\	Spi-	4gg\	Spi-	.	.	.	.
8D\J	.	.	8gg\J	.	.	.	.	.	.	.	.	.	.	.	.	.	.
!	!	!	!	!	!	!	!	!	!	!LO:LB:g=original	!	!	!	!	!	!	!
=13	=13	=13	=13	=13	=13	=13	=13	=13	=13	=13	=13	=13	=13	=13	=13	=13	=13
8D\L	5 3	.	4ff#\	.	1ryy	.	.	.	.	2a\	-ri-	2ff#\	-ri-	.	.	1ryy	1ryy
8D\	.	.	.	.	.	.	.	.	.	.	.	.	.	.	.	.	.
8D\	.	.	8dd\L	.	.	.	.	.	.	.	.	.	.	.	.	.	.
8D\J	.	.	8ff#\J	.	.	.	.	.	.	.	.	.	.	.	.	.	.
*Xtremolo	*	*	*	*	*	*	*	*	*	*	*	*	*	*	*	*	*
8G\L	6	.	8ff#\L	.	.	.	.	.	.	4g\	.	4ee\	.	.	.	.	.
8G\	.	.	8ee\	.	.	.	.	.	.	.	.	.	.	.	.	.	.
8G#X\	5_	.	8ee\	.	.	.	.	.	.	4f#\	-tus	4dd\	-tus	.	.	.	.
8G#\J	.	.	8dd\J	.	.	.	.	.	.	.	.	.	.	.	.	.	.
=14	=14	=14	=14	=14	=14	=14	=14	=14	=14	=14	=14	=14	=14	=14	=14	=14	=14
*tremolo	*	*	*	*	*	*	*	*	*	*	*	*	*	*	*	*	*
8A\L	4	.	4.dd\	.	1ryy	.	.	.	.	2f#\	me-	2dd\	me-	.	.	1ryy	1ryy
8A\	.	.	.	.	.	.	.	.	.	.	.	.	.	.	.	.	.
8A\	.	.	.	.	.	.	.	.	.	.	.	.	.	.	.	.	.
8A\J	.	.	16cc#\LL	.	.	.	.	.	.	.	.	.	.	.	.	.	.
.	.	.	16dd\JJ	.	.	.	.	.	.	.	.	.	.	.	.	.	.
*Xtremolo	*	*	*	*	*	*	*	*	*	*	*	*	*	*	*	*	*
!LO:LB:g=original	!	!	!	!	!	!	!	!	!	!	!	!	!	!	!	!	!
8A\L	3_	.	4cc#\	.	.	.	.	.	.	4e\	-us	4cc#\	-us	.	.	.	.
8Gn\	X	.	.	.	.	.	.	.	.	.	.	.	.	.	.	.	.
8F#\	.	.	4r	.	.	.	.	.	.	4r	.	4r	.	.	.	.	.
8E\J	.	.	.	.	.	.	.	.	.	.	.	.	.	.	.	.	.
=15	=15	=15	=15	=15	=15	=15	=15	=15	=15	=15	=15	=15	=15	=15	=15	=15	=15
!LO:TX:a:i:t=tutti	!	!	!	!LO:DY:t=f&colon;	!	!LO:TX:a:i:t=allegro	!	!LO:TX:a:i:t=allegro molto	!	!	!	!	!	!LO:TX:a:i:t=allegro&colon;	!LO:TX:a:i:t=allegro&colon;	!	!
8D\L	.	.	4f#/	f	1ryy	2D\	Et	2A\	Et	2f#\	&	2dd\	&	4f#/	4dd\	1ryy	1ryy
8D\	.	.	.	.	.	.	.	.	.	.	.	.	.	.	.	.	.
8D\	.	.	2f#/	.	.	.	.	.	.	.	.	.	.	8f#/L	8dd\L	.	.
8D\J	.	.	.	.	.	.	.	.	.	.	.	.	.	8f#/J	8dd\J	.	.
*tremolo	*	*	*	*	*	*	*	*	*	*	*	*	*	*	*	*	*
8D\L	.	.	.	.	.	4D\	ex-	4A\	ex-	4f#\	ex-	4dd\	ex-	4f#/	4dd\	.	.
8D\	.	.	.	.	.	.	.	.	.	.	.	.	.	.	.	.	.
8D\	.	.	8g/L	.	.	4D\	-ul-	4A\	-ul-	4f#\	-ul-	4dd\	-ul-	4f#/	4dd\	.	.
8D\J	.	.	8f#/J	.	.	.	.	.	.	.	.	.	.	.	.	.	.
=16	=16	=16	=16	=16	=16	=16	=16	=16	=16	=16	=16	=16	=16	=16	=16	=16	=16
*	*	*	*	*	*	*	*	*	*	*	*	*	*	*	*2\right	*	*
8D\L	.	.	8b/L	.	1ryy	2D\	-ta-	2A\	-ta-	4f#\	-ta-	4dd\	-ta-	2f#/	2dd\	1ryy	1ryy
8D\	.	.	8a/J	.	.	.	.	.	.	.	.	.	.	.	.	.	.
8D\	.	.	4a/	.	.	.	.	.	.	4f#\	-vit	4dd\	-vit	.	.	.	.
8D\J	.	.	.	.	.	.	.	.	.	.	.	.	.	.	.	.	.
8D\L	.	.	2r	.	.	2D\	-vit	2A\	-vit	2r	.	2r	.	2r	2r	.	.
8D\	.	.	.	.	.	.	.	.	.	.	.	.	.	.	.	.	.
8D\	.	.	.	.	.	.	.	.	.	.	.	.	.	.	.	.	.
8D\J	.	.	.	.	.	.	.	.	.	.	.	.	.	.	.	.	.
=17	=17	=17	=17	=17	=17	=17	=17	=17	=17	=17	=17	=17	=17	=17	=17	=17	=17
*	*	*	*	*	*	*	*ij	*	*ij	*	*ij	*	*ij	*	*	*	*
8D\L	.	.	4dd\	.	1ryy	2D\	et	2d\	et	2a\	et	2ff#\	et	4f#/	4dd\	1ryy	1ryy
8D\	.	.	.	.	.	.	.	.	.	.	.	.	.	.	.	.	.
8D\	.	.	2dd\	.	.	.	.	.	.	.	.	.	.	8f#/L	8dd\L	.	.
8D\J	.	.	.	.	.	.	.	.	.	.	.	.	.	8f#/J	8dd\J	.	.
8D\L	.	.	.	.	.	4D\	ex-	4d\	ex-	4a\	ex-	4ff#\	ex-	4f#/	4dd\	.	.
8D\	.	.	.	.	.	.	.	.	.	.	.	.	.	.	.	.	.
8D\	.	.	8ee\L	.	.	4D\	-ul-	4d\	-ul-	4a\	-ul-	4ff#\	-ul-	4f#/	4dd\	.	.
8D\J	.	.	8dd\J	.	.	.	.	.	.	.	.	.	.	.	.	.	.
=18	=18	=18	=18	=18	=18	=18	=18	=18	=18	=18	=18	=18	=18	=18	=18	=18	=18
8D\L	.	.	8gg\L	.	1ryy	2D\	-ta-	2d\	-ta-	4a\	-ta-	4ff#\	-ta-	2f#/	2dd\	1ryy	1ryy
8D\	.	.	8ff#\J	.	.	.	.	.	.	.	.	.	.	.	.	.	.
8D\	.	.	4ff#\	.	.	.	.	.	.	4a\	-vit	4ff#\	-vit	.	.	.	.
*	*	*	*	*	*	*	*	*	*	*	*Xij	*	*Xij	*	*	*	*
8D\J	.	.	.	.	.	.	.	.	.	.	.	.	.	.	.	.	.
8D\L	.	.	2r	.	.	2D\	-vit	2d\	-vit	2r	.	2r	.	2r	2r	.	.
*	*	*	*	*	*	*	*Xij	*	*Xij	*	*	*	*	*	*	*	*
8D\	.	.	.	.	.	.	.	.	.	.	.	.	.	.	.	.	.
8D\	.	.	.	.	.	.	.	.	.	.	.	.	.	.	.	.	.
8D\J	.	.	.	.	.	.	.	.	.	.	.	.	.	.	.	.	.
!	!	!	!LO:LB:g=original	!	!	!	!	!	!	!LO:LB:g=original	!	!LO:LB:g=original	!	!	!	!	!
=19	=19	=19	=19	=19	=19	=19	=19	=19	=19	=19	=19	=19	=19	=19	=19	=19	=19
8D\L	.	.	16a\LL	.	1ryy	2D\	&	2d\	&	2a\	&	2ff#\	Et	4f#/	4dd\	1ryy	1ryy
.	.	.	16ff#\	.	.	.	.	.	.	.	.	.	.	.	.	.	.
8D\	.	.	16a\	.	.	.	.	.	.	.	.	.	.	.	.	.	.
.	.	.	16ff#\JJ	.	.	.	.	.	.	.	.	.	.	.	.	.	.
8D\	.	.	16a\LL	.	.	.	.	.	.	.	.	.	.	8d/L	8dd\L	.	.
.	.	.	16ff#\	.	.	.	.	.	.	.	.	.	.	.	.	.	.
8D\J	.	.	16a\	.	.	.	.	.	.	.	.	.	.	8d/J	8dd\J	.	.
.	.	.	16ff#\JJ	.	.	.	.	.	.	.	.	.	.	.	.	.	.
*	*	*	*tremolo	*	*	*	*	*	*	*	*	*	*	*	*	*	*
8D\L	.	.	16a\LL	.	.	4D\	ex-	4d\	ex-	4a\	ex-	4ff#\	ex-	4d/	4dd\	.	.
.	.	.	16ff#\	.	.	.	.	.	.	.	.	.	.	.	.	.	.
8D\	.	.	16a\	.	.	.	.	.	.	.	.	.	.	.	.	.	.
.	.	.	16ff#\	.	.	.	.	.	.	.	.	.	.	.	.	.	.
8D\	.	.	16a\	.	.	4D\	-ul-	4d\	-ul-	4a\	-ul-	4ff#\	-ul-	4d/	4dd\	.	.
.	.	.	16ff#\	.	.	.	.	.	.	.	.	.	.	.	.	.	.
8D\J	.	.	16a\	.	.	.	.	.	.	.	.	.	.	.	.	.	.
.	.	.	16ff#\JJ	.	.	.	.	.	.	.	.	.	.	.	.	.	.
!	!	!	!	!	!	!LO:LB:g=original	!	!LO:LB:g=original	!	!	!	!	!	!	!	!	!
=20	=20	=20	=20	=20	=20	=20	=20	=20	=20	=20	=20	=20	=20	=20	=20	=20	=20
8D\L	6_ 4_	.	16b\LL	.	1ryy	2D\	-ta-	2d\	-ta-	2b\	-ta-	2gg\	-ta-	4d/	4dd\	1ryy	1ryy
.	.	.	16gg\	.	.	.	.	.	.	.	.	.	.	.	.	.	.
8D\	.	.	16b\	.	.	.	.	.	.	.	.	.	.	.	.	.	.
.	.	.	16gg\	.	.	.	.	.	.	.	.	.	.	.	.	.	.
8D\	.	.	16b\	.	.	.	.	.	.	.	.	.	.	8d/L	8dd\L	.	.
.	.	.	16gg\	.	.	.	.	.	.	.	.	.	.	.	.	.	.
8D\J	.	.	16b\	.	.	.	.	.	.	.	.	.	.	8d/J	8dd\J	.	.
.	.	.	16gg\JJ	.	.	.	.	.	.	.	.	.	.	.	.	.	.
8D\L	.	.	16b\LL	.	.	4D\	-vit	4d\	-vit	4b\	-vit	4gg\	-vit	4d/	4dd\	.	.
.	.	.	16gg\	.	.	.	.	.	.	.	.	.	.	.	.	.	.
8D\	.	.	16b\	.	.	.	.	.	.	.	.	.	.	.	.	.	.
.	.	.	16gg\	.	.	.	.	.	.	.	.	.	.	.	.	.	.
8D\	.	.	16b\	.	.	4D\	Spi-	4d\	Spi-	4b\	Spi-	4gg\	Spi-	4d/	4dd\	.	.
.	.	.	16gg\	.	.	.	.	.	.	.	.	.	.	.	.	.	.
8D\J	.	.	16b\	.	.	.	.	.	.	.	.	.	.	.	.	.	.
.	.	.	16gg\JJ	.	.	.	.	.	.	.	.	.	.	.	.	.	.
*	*	*	*Xtremolo	*	*	*	*	*	*	*	*	*	*	*	*	*	*
=21	=21	=21	=21	=21	=21	=21	=21	=21	=21	=21	=21	=21	=21	=21	=21	=21	=21
8D\L	5 3	.	4ff#\	.	1ryy	4D\	-ri-	4d\	-ri-	4a\	-ri-	4ff#\	-ri-	4d/	4dd\	1ryy	1ryy
8D\	.	.	.	.	.	.	.	.	.	.	.	.	.	.	.	.	.
8D\	.	.	8dd\L	.	.	4d\	-tus	4A\	-tus	4f#\	-tus	4dd\	-tus	4dd\	4ff#\	.	.
8D\J	.	.	8ff#\J	.	.	.	.	.	.	.	.	.	.	.	.	.	.
8AA/L	.	.	8ff#\L	.	.	2A\	me-	2A\	me-	2e\	me-	2cc#\	me-	2a/	2ee\	.	.
8AA/	.	.	8ee\	.	.	.	.	.	.	.	.	.	.	.	.	.	.
8AA/	.	.	8dd\	.	.	.	.	.	.	.	.	.	.	.	.	.	.
8AA/J	.	.	8cc#\J	.	.	.	.	.	.	.	.	.	.	.	.	.	.
!	!	!	!	!	!	!	!	!	!	!	!	!	!	!LO:LB:g=original	!LO:LB:g=original	!	!
=22	=22	=22	=22	=22	=22	=22	=22	=22	=22	=22	=22	=22	=22	=22	=22	=22	=22
*	*	*	*tremolo	*	*	*	*	*	*	*	*	*	*	*	*	*	*
8D\L	.	.	16f#/LL	.	1ryy	2D\	-us	2A\	-us	2f#\	-us	2dd\	-us	4f#/	4dd\	1ryy	1ryy
.	.	.	16f#/	.	.	.	.	.	.	.	.	.	.	.	.	.	.
8D\	.	.	16f#/	.	.	.	.	.	.	.	.	.	.	.	.	.	.
.	.	.	16f#/JJ	.	.	.	.	.	.	.	.	.	.	.	.	.	.
8D\	.	.	16f#/LL	.	.	.	.	.	.	.	.	.	.	8d/L	8dd\L	.	.
.	.	.	16f#/	.	.	.	.	.	.	.	.	.	.	.	.	.	.
8D\J	.	.	16f#/	.	.	.	.	.	.	.	.	.	.	8d/J	8dd\J	.	.
.	.	.	16f#/JJ	.	.	.	.	.	.	.	.	.	.	.	.	.	.
8D\L	.	.	16f#/LL	.	.	2D\	in	2d\	in	2f#\	in	2dd\	in	4d/	4dd\	.	.
.	.	.	16f#/	.	.	.	.	.	.	.	.	.	.	.	.	.	.
8D\	.	.	16f#/	.	.	.	.	.	.	.	.	.	.	.	.	.	.
.	.	.	16f#/	.	.	.	.	.	.	.	.	.	.	.	.	.	.
8D\	.	.	16f#/	.	.	.	.	.	.	.	.	.	.	4r	4r	.	.
.	.	.	16f#/	.	.	.	.	.	.	.	.	.	.	.	.	.	.
8D\J	.	.	16f#/	.	.	.	.	.	.	.	.	.	.	.	.	.	.
.	.	.	16f#/JJ	.	.	.	.	.	.	.	.	.	.	.	.	.	.
*Xtremolo	*	*	*	*	*	*	*	*	*	*	*	*	*	*	*	*	*
!LO:LB:g=original	!	!	!	!	!	!	!	!	!	!	!	!	!	!	!	!	!
=23	=23	=23	=23	=23	=23	=23	=23	=23	=23	=23	=23	=23	=23	=23	=23	=23	=23
8D\L	7_ 4_ 2_	.	16e/LL	.	1ryy	2D\	De-	2c#\	De-	2g\	De-	2ee\	De-	4d/	4dd\	1ryy	1ryy
.	.	.	16e/	.	.	.	.	.	.	.	.	.	.	.	.	.	.
8D\	.	.	16e/	.	.	.	.	.	.	.	.	.	.	.	.	.	.
.	.	.	16e/	.	.	.	.	.	.	.	.	.	.	.	.	.	.
8D\	.	.	16e/	.	.	.	.	.	.	.	.	.	.	8d/L	8dd\L	.	.
.	.	.	16e/	.	.	.	.	.	.	.	.	.	.	.	.	.	.
8D\J	.	.	16e/	.	.	.	.	.	.	.	.	.	.	8d/J	8dd\J	.	.
.	X X X	.	16e/JJ	.	.	.	.	.	.	.	.	.	.	.	.	.	.
*tremolo	*	*	*	*	*	*	*	*	*	*	*	*	*	*	*	*	*
8D\L	.	.	16e/LL	.	.	2D\	-o	2c#\	-o	2g\	-o	2ee\	-o	4d/	4dd\	.	.
.	.	.	16e/	.	.	.	.	.	.	.	.	.	.	.	.	.	.
8D\	.	.	16e/	.	.	.	.	.	.	.	.	.	.	.	.	.	.
.	.	.	16e/	.	.	.	.	.	.	.	.	.	.	.	.	.	.
8D\	.	.	16e/	.	.	.	.	.	.	.	.	.	.	4r	4r	.	.
.	.	.	16e/	.	.	.	.	.	.	.	.	.	.	.	.	.	.
8D\J	.	.	16e/	.	.	.	.	.	.	.	.	.	.	.	.	.	.
!	!	!	!	!	!	!LO:TX:b:i:t=Verte Cito	!	!	!	!	!	!	!	!	!	!	!
.	.	.	16e/JJ	.	.	.	.	.	.	.	.	.	.	.	.	.	.
!	!	!	!	!	!	!LO:PB:g=original	!	!	!	!	!	!	!	!	!	!	!
=24	=24	=24	=24	=24	=24	=24	=24	=24	=24	=24	=24	=24	=24	=24	=24	=24	=24
8D\L	x 5_ 3_	.	16f#/LL	.	1ryy	2D\	ſa-	2d\	ſa-	2f#\	ſa-	2dd\	ſa-	4d/	4dd\	1ryy	1ryy
.	.	.	16f#/	.	.	.	.	.	.	.	.	.	.	.	.	.	.
8D\	.	.	16f#/	.	.	.	.	.	.	.	.	.	.	.	.	.	.
.	.	.	16f#/	.	.	.	.	.	.	.	.	.	.	.	.	.	.
8D\	.	.	16f#/	.	.	.	.	.	.	.	.	.	.	8d/L	8dd\L	.	.
.	.	.	16f#/	.	.	.	.	.	.	.	.	.	.	.	.	.	.
8D\J	.	.	16f#/	.	.	.	.	.	.	.	.	.	.	8d/J	8dd\J	.	.
.	.	.	16f#/JJ	.	.	.	.	.	.	.	.	.	.	.	.	.	.
8D\L	.	.	16f#/LL	.	.	2D\	-lu-	2d\	-lu-	2f#\	-lu-	2dd\	-lu-	4d/	4dd\	.	.
.	.	.	16f#/	.	.	.	.	.	.	.	.	.	.	.	.	.	.
8D\	.	.	16f#/	.	.	.	.	.	.	.	.	.	.	.	.	.	.
.	.	.	16f#/	.	.	.	.	.	.	.	.	.	.	.	.	.	.
8D\	.	.	16f#/	.	.	.	.	.	.	.	.	.	.	4r	4r	.	.
.	.	.	16f#/	.	.	.	.	.	.	.	.	.	.	.	.	.	.
8D\J	.	.	16f#/	.	.	.	.	.	.	.	.	.	.	.	.	.	.
.	.	.	16f#/JJ	.	.	.	.	.	.	.	.	.	.	.	.	.	.
!	!	!	!	!	!	!	!	!	!	!	!	!LO:LB:g=original	!	!	!	!	!
=25	=25	=25	=25	=25	=25	=25	=25	=25	=25	=25	=25	=25	=25	=25	=25	=25	=25
8D\L	7_ 4_ 2_	.	16e/LL	.	1ryy	4D\	-ta-	4B\	-ta-	4g\	-ta-	4ee\	-ta-	4d/	4dd\	1ryy	1ryy
.	.	.	16e/	.	.	.	.	.	.	.	.	.	.	.	.	.	.
8D\	.	.	16e/	.	.	.	.	.	.	.	.	.	.	.	.	.	.
.	.	.	16e/	.	.	.	.	.	.	.	.	.	.	.	.	.	.
8D\	.	.	16e/	.	.	4D\	-ri	4B\	-ri	4g\	-ri	4ee\	-ri	8d/L	8dd\L	.	.
.	.	.	16e/	.	.	.	.	.	.	.	.	.	.	.	.	.	.
8D\J	.	.	16e/	.	.	.	.	.	.	.	.	.	.	8d/J	8dd\J	.	.
.	.	.	16e/JJ	.	.	.	.	.	.	.	.	.	.	.	.	.	.
!	!	!	!	!	!	!	!	!	!	!LO:LB:g=original	!	!	!	!	!	!	!
8D\L	.	.	16e/LL	.	.	2D\	me-	2c#\	me-	2g\	me-	2ee\	me-	4d/	4dd\	.	.
.	.	.	16e/	.	.	.	.	.	.	.	.	.	.	.	.	.	.
8D\	.	.	16e/	.	.	.	.	.	.	.	.	.	.	.	.	.	.
.	.	.	16e/	.	.	.	.	.	.	.	.	.	.	.	.	.	.
8D\	.	.	16e/	.	.	.	.	.	.	.	.	.	.	4d/	4r	.	.
.	.	.	16e/	.	.	.	.	.	.	.	.	.	.	.	.	.	.
8D\J	.	.	16e/	.	.	.	.	.	.	.	.	.	.	.	.	.	.
.	.	.	16e/JJ	.	.	.	.	.	.	.	.	.	.	.	.	.	.
=26	=26	=26	=26	=26	=26	=26	=26	=26	=26	=26	=26	=26	=26	=26	=26	=26	=26
8D\L	x 5_ 3_	.	16f#LL	.	1ryy	2D\	-o	2d\	-o	2f#\	-o	2dd\	-o	4d/	4dd\	1ryy	1ryy
.	.	.	16a	.	.	.	.	.	.	.	.	.	.	.	.	.	.
8D\	.	.	16f#	.	.	.	.	.	.	.	.	.	.	.	.	.	.
.	.	.	16a	.	.	.	.	.	.	.	.	.	.	.	.	.	.
8D\	.	.	16f#	.	.	.	.	.	.	.	.	.	.	4r	4r	.	.
.	.	.	16a	.	.	.	.	.	.	.	.	.	.	.	.	.	.
8D\J	.	.	16f#	.	.	.	.	.	.	.	.	.	.	.	.	.	.
.	.	.	16a	.	.	.	.	.	.	.	.	.	.	.	.	.	.
8D\L	.	.	16f#	.	.	2d\	in	2d\	in	2a\	in	2ff#\	in	4dd\	4ff#\	.	.
.	.	.	16a	.	.	.	.	.	.	.	.	.	.	.	.	.	.
8D\	.	.	16f#	.	.	.	.	.	.	.	.	.	.	.	.	.	.
.	.	.	16a	.	.	.	.	.	.	.	.	.	.	.	.	.	.
8D\	.	.	16f#	.	.	.	.	.	.	.	.	.	.	8dd\L	8ff#\L	.	.
.	.	.	16a	.	.	.	.	.	.	.	.	.	.	.	.	.	.
8D\J	.	.	16f#	.	.	.	.	.	.	.	.	.	.	8dd\J	8ff#\J	.	.
.	.	.	16aJJ	.	.	.	.	.	.	.	.	.	.	.	.	.	.
*	*	*	*Xtremolo	*	*	*	*	*	*	*	*	*	*	*	*	*	*
!	!	!	!LO:LB:g=original	!	!	!	!	!LO:LB:g=original	!	!	!	!	!	!	!	!	!
=27	=27	=27	=27	=27	=27	=27	=27	=27	=27	=27	=27	=27	=27	=27	=27	=27	=27
8C#/L	x 6_	.	16e/LL	.	1ryy	2c#\	De-	2e\	De-	2a\	De-	2ee\	De-	4a/	4ee\	1ryy	1ryy
.	.	.	16a/	.	.	.	.	.	.	.	.	.	.	.	.	.	.
8C#/	.	.	16e/	.	.	.	.	.	.	.	.	.	.	.	.	.	.
.	.	.	16a/JJ	.	.	.	.	.	.	.	.	.	.	.	.	.	.
8C#/	.	.	16e/LL	.	.	.	.	.	.	.	.	.	.	4r	4r	.	.
.	.	.	16a/	.	.	.	.	.	.	.	.	.	.	.	.	.	.
8C#/J	.	.	16e/	.	.	.	.	.	.	.	.	.	.	.	.	.	.
.	.	.	16a/JJ	.	.	.	.	.	.	.	.	.	.	.	.	.	.
*	*	*	*tremolo	*	*	*	*	*	*	*	*	*	*	*	*	*	*
8C#/L	.	.	16e/LL	.	.	2c#\	-o	2e\	-o	2a\	-o	2ee\	-o	4a/	4ee\	.	.
.	.	.	16a/	.	.	.	.	.	.	.	.	.	.	.	.	.	.
8C#/	.	.	16e/	.	.	.	.	.	.	.	.	.	.	.	.	.	.
.	.	.	16a/	.	.	.	.	.	.	.	.	.	.	.	.	.	.
8C#/	.	.	16e/	.	.	.	.	.	.	.	.	.	.	8a/L	8ee\L	.	.
.	.	.	16a/	.	.	.	.	.	.	.	.	.	.	.	.	.	.
8C#/J	.	.	16e/	.	.	.	.	.	.	.	.	.	.	8a/J	8ee\J	.	.
.	.	.	16a/JJ	.	.	.	.	.	.	.	.	.	.	.	.	.	.
=28	=28	=28	=28	=28	=28	=28	=28	=28	=28	=28	=28	=28	=28	=28	=28	=28	=28
8G#X\L	6 5	.	16e/LL	.	1ryy	2G#X\	ſa-	2e\	ſa-	2b\	ſa-	2dd\	ſa-	1ee	1ee	1ryy	1ryy
.	.	.	16e/	.	.	.	.	.	.	.	.	.	.	.	.	.	.
8G#X\	.	.	16e/	.	.	.	.	.	.	.	.	.	.	.	.	.	.
.	.	.	16e/	.	.	.	.	.	.	.	.	.	.	.	.	.	.
8G#X\	.	.	16e/	.	.	.	.	.	.	.	.	.	.	.	.	.	.
.	.	.	16e/	.	.	.	.	.	.	.	.	.	.	.	.	.	.
8G#X\J	.	.	16e/	.	.	.	.	.	.	.	.	.	.	.	.	.	.
.	.	.	16e/JJ	.	.	.	.	.	.	.	.	.	.	.	.	.	.
8G#\L	.	.	16e/LL	.	.	2G#\	-lu-	2e\	-lu-	2b\	-lu-	2dd\	-lu-	.	.	.	.
.	.	.	16e/	.	.	.	.	.	.	.	.	.	.	.	.	.	.
8G#\	.	.	16e/	.	.	.	.	.	.	.	.	.	.	.	.	.	.
.	.	.	16e/	.	.	.	.	.	.	.	.	.	.	.	.	.	.
8G#\	.	.	16e/	.	.	.	.	.	.	.	.	.	.	.	.	.	.
.	.	.	16e/	.	.	.	.	.	.	.	.	.	.	.	.	.	.
8G#\J	.	.	16e/	.	.	.	.	.	.	.	.	.	.	.	.	.	.
.	.	.	16e/JJ	.	.	.	.	.	.	.	.	.	.	.	.	.	.
!	!	!	!	!	!	!	!	!	!	!	!	!	!	!	!LO:LB:g=original	!	!
=29	=29	=29	=29	=29	=29	=29	=29	=29	=29	=29	=29	=29	=29	=29	=29	=29	=29
8A\L	.	.	16c#/LL	.	1ryy	2A\	-ta-	2e\	-ta-	2a\	-ta-	2cc#\	-ta-	2a/	1ee	1ryy	1ryy
.	.	.	16e/	.	.	.	.	.	.	.	.	.	.	.	.	.	.
8A\	.	.	16c#/	.	.	.	.	.	.	.	.	.	.	.	.	.	.
.	.	.	16e/	.	.	.	.	.	.	.	.	.	.	.	.	.	.
8A\	.	.	16c#/	.	.	.	.	.	.	.	.	.	.	.	.	.	.
.	.	.	16e/	.	.	.	.	.	.	.	.	.	.	.	.	.	.
8A\J	.	.	16c#/	.	.	.	.	.	.	.	.	.	.	.	.	.	.
.	.	.	16e/JJ	.	.	.	.	.	.	.	.	.	.	.	.	.	.
*	*	*	*	*	*	*	*	*	*	*	*	*	*	*2\right	*	*	*
8G#X\L	6 5	.	16B/LL	.	.	2G#X\	-ri	2e\	-ri	2b\	-ri	2dd\	-ri	2ee\	.	.	.
.	.	.	16e/	.	.	.	.	.	.	.	.	.	.	.	.	.	.
8G#X\	.	.	16B/	.	.	.	.	.	.	.	.	.	.	.	.	.	.
.	.	.	16e/	.	.	.	.	.	.	.	.	.	.	.	.	.	.
8G#X\	.	.	16B/	.	.	.	.	.	.	.	.	.	.	.	.	.	.
.	.	.	16e/	.	.	.	.	.	.	.	.	.	.	.	.	.	.
8G#X\J	.	.	16B/	.	.	.	.	.	.	.	.	.	.	.	.	.	.
.	.	.	16e/JJ	.	.	.	.	.	.	.	.	.	.	.	.	.	.
!	!	!	!	!	!	!	!	!	!	!	!	!	!	!LO:LB:g=original	!	!	!
=30	=30	=30	=30	=30	=30	=30	=30	=30	=30	=30	=30	=30	=30	=30	=30	=30	=30
8A\L	.	.	16c#/LL	.	1ryy	2A\	me-	1e	me-	2a\	me-	2cc#\	me-	2a/	1ee	1ryy	1ryy
.	.	.	16e/	.	.	.	.	.	.	.	.	.	.	.	.	.	.
8A\	.	.	16c#/	.	.	.	.	.	.	.	.	.	.	.	.	.	.
.	.	.	16e/	.	.	.	.	.	.	.	.	.	.	.	.	.	.
8A\	.	.	16c#/	.	.	.	.	.	.	.	.	.	.	.	.	.	.
.	.	.	16e/	.	.	.	.	.	.	.	.	.	.	.	.	.	.
8A\J	.	.	16c#/	.	.	.	.	.	.	.	.	.	.	.	.	.	.
.	.	.	16e/JJ	.	.	.	.	.	.	.	.	.	.	.	.	.	.
!LO:SIC:v:s=8G#\L	!	!	!	!	!	!	!	!	!	!	!	!	!	!	!	!	!
8G\L	6 5	.	16B/LL	.	.	2G#X\	.	.	.	2b\	.	2dd\	.	2ee\	.	.	.
.	.	.	16e/	.	.	.	.	.	.	.	.	.	.	.	.	.	.
!LO:SIC:v:s=8G#\	!	!	!	!	!	!	!	!	!	!	!	!	!	!	!	!	!
8G\	.	.	16B/	.	.	.	.	.	.	.	.	.	.	.	.	.	.
.	.	.	16e/	.	.	.	.	.	.	.	.	.	.	.	.	.	.
!LO:SIC:v:s=8G#\	!	!	!	!	!	!	!	!	!	!	!	!	!	!	!	!	!
8G\	.	.	16B/	.	.	.	.	.	.	.	.	.	.	.	.	.	.
.	.	.	16e/	.	.	.	.	.	.	.	.	.	.	.	.	.	.
!LO:SIC:v:s=8G#\J	!	!	!	!	!	!	!	!	!	!	!	!	!	!	!	!	!
8G\J	.	.	16B/	.	.	.	.	.	.	.	.	.	.	.	.	.	.
.	.	.	16e/JJ	.	.	.	.	.	.	.	.	.	.	.	.	.	.
*Xtremolo	*	*	*Xtremolo	*	*	*	*	*	*	*	*	*	*	*	*	*	*
!	!	!	!	!	!	!LO:LB:g=original	!	!	!	!	!	!	!	!	!	!	!
=31	=31	=31	=31	=31	=31	=31	=31	=31	=31	=31	=31	=31	=31	=31	=31	=31	=31
8A\L	.	.	4c#/	.	1ryy	4A\	-o	4e\	-o	4a\	-o	4cc#\	-o	4a/	4ee\	1ryy	1ryy
8A\	.	.	.	.	.	.	.	.	.	.	.	.	.	.	.	.	.
8E\	.	.	4cc# 4e\	.	.	4r	.	4r	.	4r	.	4r	.	4a/	4ee\	.	.
8C#\J	.	.	.	.	.	.	.	.	.	.	.	.	.	.	.	.	.
4AA/	.	.	4cc# 4e\	.	.	2r	.	2r	.	2r	.	2r	.	4a/	4ee\	.	.
4r	.	.	4r	.	.	.	.	.	.	.	.	.	.	4r	4r	.	.
!LO:LB:g=original	!	!	!	!	!	!	!	!	!	!	!	!LO:LB:g=original	!	!	!	!	!
=32	=32	=32	=32	=32	=32	=32	=32	=32	=32	=32	=32	=32	=32	=32	=32	=32	=32
!	!	!LO:DY:t=pio&colon;	!	!LO:DY:t=p&colon;	!	!	!	!	!	!LO:TX:a:t=9	!	!LO:TX:a:i:rj:t=Solo&colon;	!	!	!	!	!
4r	.	p	4r	p	1ryy	00r	.	00r	.	00r	.	2ee\	qvi-	00r	00r	1ryy	1ryy
4A\	.	.	4e/	.	.	.	.	.	.	.	.	.	.	.	.	.	.
4A\	.	.	4e/	.	.	.	.	.	.	.	.	8dd\L	-a	.	.	.	.
.	.	.	.	.	.	.	.	.	.	.	.	8cc#\J	.	.	.	.	.
4A\	.	.	4e/	.	.	.	.	.	.	.	.	8b\L	res-	.	.	.	.
.	.	.	.	.	.	.	.	.	.	.	.	8a\J	.	.	.	.	.
=33	=33	=33	=33	=33	=33	=33	=33	=33	=33	=33	=33	=33	=33	=33	=33	=33	=33
4r	.	.	4r	.	1ryy	.	.	.	.	.	.	8g#X\L	-pe-	.	.	1ryy	1ryy
.	.	.	.	.	.	.	.	.	.	.	.	8a\	.	.	.	.	.
4E\	#_	.	4g#X/	.	.	.	.	.	.	.	.	8b\	.	.	.	.	.
.	.	.	.	.	.	.	.	.	.	.	.	8cc#\J	.	.	.	.	.
4E\	.	.	4g#/	.	.	.	.	.	.	.	.	4dd\	-xit	.	.	.	.
4E\	X	.	4g#/	.	.	.	.	.	.	.	.	4r	.	.	.	.	.
=34	=34	=34	=34	=34	=34	=34	=34	=34	=34	=34	=34	=34	=34	=34	=34	=34	=34
4r	.	.	4r	.	1ryy	.	.	.	.	.	.	2dd\	hu-	.	.	1ryy	1ryy
4E\	.	.	4g/	.	.	.	.	.	.	.	.	.	.	.	.	.	.
4E\	.	.	4g/	.	.	.	.	.	.	.	.	8cc#\L	-mi-	.	.	.	.
.	.	.	.	.	.	.	.	.	.	.	.	8b\J	.	.	.	.	.
4E\	.	.	4g/	.	.	.	.	.	.	.	.	8a\L	-li-	.	.	.	.
.	.	.	.	.	.	.	.	.	.	.	.	8g#X\J	.	.	.	.	.
!	!	!	!LO:LB:g=original	!	!	!	!	!	!	!	!	!	!	!	!	!	!
=35	=35	=35	=35	=35	=35	=35	=35	=35	=35	=35	=35	=35	=35	=35	=35	=35	=35
4r	.	.	4r	.	1ryy	.	.	.	.	.	.	8a\L	-ta-	.	.	1ryy	1ryy
.	.	.	.	.	.	.	.	.	.	.	.	8b\	.	.	.	.	.
4A\	.	.	4e/	.	.	.	.	.	.	.	.	8cc#\	.	.	.	.	.
.	.	.	.	.	.	.	.	.	.	.	.	8dd\J	.	.	.	.	.
4A\	.	.	4e/	.	.	.	.	.	.	.	.	4ee\	-tem	.	.	.	.
4A\	.	.	4e/	.	.	.	.	.	.	.	.	4r	.	.	.	.	.
=36	=36	=36	=36	=36	=36	=36	=36	=36	=36	=36	=36	=36	=36	=36	=36	=36	=36
4r	.	.	4r	.	1ryy	00r	.	00r	.	00r	.	2ee\	hu-	00r	00r	1ryy	1ryy
4G\	.	.	4e/	.	.	.	.	.	.	.	.	.	.	.	.	.	.
4G\	.	.	4e/	.	.	.	.	.	.	.	.	8ff#\L	-mi-	.	.	.	.
.	.	.	.	.	.	.	.	.	.	.	.	8ee\J	.	.	.	.	.
4G\	.	.	4e/	.	.	.	.	.	.	.	.	8dd\L	-li-	.	.	.	.
.	.	.	.	.	.	.	.	.	.	.	.	8cc#\J	.	.	.	.	.
!	!	!	!	!	!	!	!	!	!	!	!	!LO:LB:g=original	!	!	!	!	!
=37	=37	=37	=37	=37	=37	=37	=37	=37	=37	=37	=37	=37	=37	=37	=37	=37	=37
4r	.	.	4r	.	1ryy	.	.	.	.	.	.	8b\L	-ta-	.	.	1ryy	1ryy
.	.	.	.	.	.	.	.	.	.	.	.	8a\	.	.	.	.	.
4G#X\	6_ 5_	.	4e/	.	.	.	.	.	.	.	.	8b\	.	.	.	.	.
.	.	.	.	.	.	.	.	.	.	.	.	8cc#\J	.	.	.	.	.
4G#\	.	.	4e/	.	.	.	.	.	.	.	.	4.dd\	-tem	.	.	.	.
4G#\	.	.	4e/	.	.	.	.	.	.	.	.	.	.	.	.	.	.
.	.	.	.	.	.	.	.	.	.	.	.	16ee\LL	an-	.	.	.	.
.	X X	.	.	.	.	.	.	.	.	.	.	16dd\JJ	.	.	.	.	.
=38	=38	=38	=38	=38	=38	=38	=38	=38	=38	=38	=38	=38	=38	=38	=38	=38	=38
4A\	.	.	4e/	.	1ryy	.	.	.	.	.	.	8cc#\L	-cil-	.	.	1ryy	1ryy
.	.	.	.	.	.	.	.	.	.	.	.	8ee\J	.	.	.	.	.
4D\	6	.	4f#/	.	.	.	.	.	.	.	.	8ff#\L	-lae	.	.	.	.
.	.	.	.	.	.	.	.	.	.	.	.	8dd\J	.	.	.	.	.
4E\	4	.	4e/	.	.	.	.	.	.	.	.	4cc#\	ſu-	.	.	.	.
4EE/	#	.	4e/	.	.	.	.	.	.	.	.	4b\	.	.	.	.	.
=39	=39	=39	=39	=39	=39	=39	=39	=39	=39	=39	=39	=39	=39	=39	=39	=39	=39
4AA/	.	.	4e/	.	1ryy	.	.	.	.	.	.	4cc#\	-ae	.	.	1ryy	1ryy
8A|\L	.	.	8a|/L	.	.	.	.	.	.	.	.	4r	.	.	.	.	.
8G#X|\J	.	.	8g#X|/J	.	.	.	.	.	.	.	.	.	.	.	.	.	.
8A|\L	.	.	8a|/L	.	.	.	.	.	.	.	.	2r	.	.	.	.	.
8B|\	.	.	8b|/	.	.	.	.	.	.	.	.	.	.	.	.	.	.
8c#|\	.	.	8cc#|/	.	.	.	.	.	.	.	.	.	.	.	.	.	.
8B|\J	.	.	8b|/J	.	.	.	.	.	.	.	.	.	.	.	.	.	.
!LO:LB:g=original	!	!	!	!	!	!	!	!	!	!	!	!	!	!	!	!	!
=40	=40	=40	=40	=40	=40	=40	=40	=40	=40	=40	=40	=40	=40	=40	=40	=40	=40
8A|\L	.	.	8a|/L	.	1ryy	00r	.	00r	.	1r	.	1r	.	00r	00r	1ryy	1ryy
!	!	!	!LO:SIC:v:s=8g#/	!	!	!	!	!	!	!	!	!	!	!	!	!	!
8G#X|\	.	.	8g|/	.	.	.	.	.	.	.	.	.	.	.	.	.	.
8A|\	.	.	8a|/	.	.	.	.	.	.	.	.	.	.	.	.	.	.
8B|\J	.	.	8b|/J	.	.	.	.	.	.	.	.	.	.	.	.	.	.
8A|\L	.	.	8a|/L	.	.	.	.	.	.	.	.	.	.	.	.	.	.
8Gn|\	.	.	8gn|/	.	.	.	.	.	.	.	.	.	.	.	.	.	.
8F#|\	.	.	8f#|/	.	.	.	.	.	.	.	.	.	.	.	.	.	.
8E|\J	.	.	8e|/J	.	.	.	.	.	.	.	.	.	.	.	.	.	.
!	!	!	!	!	!	!	!	!	!	!LO:LB:g=original	!	!	!	!	!	!	!
=41	=41	=41	=41	=41	=41	=41	=41	=41	=41	=41	=41	=41	=41	=41	=41	=41	=41
!	!	!	!	!	!	!	!	!	!	!LO:TX:a:i:rj:t=Soli	!	!	!	!	!	!	!
4D#X|\	.	.	4d#X'/	.	1ryy	.	.	.	.	4r	.	4r	.	.	.	1ryy	1ryy
4r	.	.	4r	.	.	.	.	.	.	(4a\	Ec-	(4ff#\	ec-	.	.	.	.
2r	.	.	4r	.	.	.	.	.	.	4gn\)	.	4ee\)	.	.	.	.	.
.	.	.	4B/	.	.	.	.	.	.	4f#\	-ce	4dd#X\	-ce	.	.	.	.
=42	=42	=42	=42	=42	=42	=42	=42	=42	=42	=42	=42	=42	=42	=42	=42	=42	=42
0r	.	.	4e/	.	1ryy	.	.	.	.	4.g\	e-	4.ee\	e-	.	.	1ryy	1ryy
.	.	.	4e/	.	.	.	.	.	.	.	.	.	.	.	.	.	.
.	.	.	.	.	.	.	.	.	.	8b\	.	8ggn\	.	.	.	.	.
.	.	.	4e/	.	.	.	.	.	.	8b\L	.	8gg\L	.	.	.	.	.
.	.	.	.	.	.	.	.	.	.	8a\J	.	8ff#\J	.	.	.	.	.
.	.	.	4e/	.	.	.	.	.	.	8a\L	-nim	8ff#\L	-nim	.	.	.	.
.	.	.	.	.	.	.	.	.	.	8g\J	.	8ee\J	.	.	.	.	.
!	!	!	!LO:LB:g=original	!	!	!	!	!	!	!	!	!LO:LB:g=original	!	!	!	!	!
=43	=43	=43	=43	=43	=43	=43	=43	=43	=43	=43	=43	=43	=43	=43	=43	=43	=43
.	.	.	4B/	.	1ryy	.	.	.	.	4f#\	ex	4cc#X\	ex	.	.	1ryy	1ryy
.	.	.	4B/	.	.	.	.	.	.	2f#\	hoc	2dd\	hoc	.	.	.	.
.	.	.	4B/	.	.	.	.	.	.	.	.	.	.	.	.	.	.
.	.	.	4B/	.	.	.	.	.	.	8g\L	be-	8ee\L	be-	.	.	.	.
.	.	.	.	.	.	.	.	.	.	8a\J	.	8ff#\J	.	.	.	.	.
=44	=44	=44	=44	=44	=44	=44	=44	=44	=44	=44	=44	=44	=44	=44	=44	=44	=44
4r	.	.	4r	.	1ryy	00r	.	00r	.	8a\L	-a-	8ff#\L	-a-	00r	00r	1ryy	1ryy
.	.	.	.	.	.	.	.	.	.	8g\	.	8ee\	.	.	.	.	.
4BB/	.	.	4B/	.	.	.	.	.	.	8g\	.	8ee\	.	.	.	.	.
.	.	.	.	.	.	.	.	.	.	8f#\J	.	8dd#X\J	.	.	.	.	.
8E|\L	.	.	8e|/L	.	.	.	.	.	.	4f#\	-tam	4ee\	-tam	.	.	.	.
8D#X|\	.	.	8d#X|/	.	.	.	.	.	.	.	.	.	.	.	.	.	.
8E|\	.	.	8e|/	.	.	.	.	.	.	4r	.	4r	.	.	.	.	.
8F#|\J	.	.	8f#|/J	.	.	.	.	.	.	.	.	.	.	.	.	.	.
=45	=45	=45	=45	=45	=45	=45	=45	=45	=45	=45	=45	=45	=45	=45	=45	=45	=45
4.G|\	.	.	4.g|/	.	1ryy	.	.	.	.	0r	.	0r	.	.	.	1ryy	1ryy
8F#|\	.	.	8f#|/	.	.	.	.	.	.	.	.	.	.	.	.	.	.
8G|\L	.	.	8g|/L	.	.	.	.	.	.	.	.	.	.	.	.	.	.
8A|\	.	.	8a|/	.	.	.	.	.	.	.	.	.	.	.	.	.	.
8B|\	.	.	8b|/	.	.	.	.	.	.	.	.	.	.	.	.	.	.
8A|\J	.	.	8a|/J	.	.	.	.	.	.	.	.	.	.	.	.	.	.
=46	=46	=46	=46	=46	=46	=46	=46	=46	=46	=46	=46	=46	=46	=46	=46	=46	=46
8G|\L	.	.	8g|/L	.	1ryy	.	.	.	.	.	.	.	.	.	.	1ryy	1ryy
8F#|\	.	.	8f#|/	.	.	.	.	.	.	.	.	.	.	.	.	.	.
8G|\	.	.	8g|/	.	.	.	.	.	.	.	.	.	.	.	.	.	.
8A|\J	.	.	8a|/J	.	.	.	.	.	.	.	.	.	.	.	.	.	.
8G|\L	.	.	8g|/L	.	.	.	.	.	.	.	.	.	.	.	.	.	.
8F#|\	.	.	8f#|/	.	.	.	.	.	.	.	.	.	.	.	.	.	.
8E|\	.	.	8e|/	.	.	.	.	.	.	.	.	.	.	.	.	.	.
8Dn|\J	.	.	8dn|/J	.	.	.	.	.	.	.	.	.	.	.	.	.	.
=47	=47	=47	=47	=47	=47	=47	=47	=47	=47	=47	=47	=47	=47	=47	=47	=47	=47
4C#/	.	.	4c#|/	.	1ryy	.	.	.	.	4r	.	4r	.	.	.	1ryy	1ryy
4r	.	.	4r	.	.	.	.	.	.	(4g\	ec-	(4ee\	ec-	.	.	.	.
2r	.	.	4r	.	.	.	.	.	.	4f#\)	.	4ddn\)	.	.	.	.	.
.	.	.	4A/	.	.	.	.	.	.	4e\	-ce	4cc#\	-ce	.	.	.	.
!LO:LB:g=original	!	!	!	!	!	!	!	!	!	!	!	!	!	!	!	!	!
=48	=48	=48	=48	=48	=48	=48	=48	=48	=48	=48	=48	=48	=48	=48	=48	=48	=48
0r	.	.	4d/	.	1ryy	0r	.	0r	.	4.f#\	e-	4.dd\	e-	0r	0r	1ryy	1ryy
.	.	.	4d/	.	.	.	.	.	.	.	.	.	.	.	.	.	.
.	.	.	.	.	.	.	.	.	.	8a\	.	8ff#\	.	.	.	.	.
!	!	!	!	!	!	!	!	!	!	!LO:LB:g=original	!	!	!	!	!	!	!
.	.	.	4d/	.	.	.	.	.	.	8a\L	.	8ff#\L	.	.	.	.	.
.	.	.	.	.	.	.	.	.	.	8g\J	.	8ee\J	.	.	.	.	.
.	.	.	4d/	.	.	.	.	.	.	8g\L	-nim	8ee\L	-nim	.	.	.	.
.	.	.	.	.	.	.	.	.	.	8f#\J	.	8dd\J	.	.	.	.	.
=49	=49	=49	=49	=49	=49	=49	=49	=49	=49	=49	=49	=49	=49	=49	=49	=49	=49
.	.	.	4A/	.	1ryy	.	.	.	.	4e\	ex	4cc#\	ex	.	.	1ryy	1ryy
.	.	.	4A/	.	.	.	.	.	.	2e\	hoc	2cc#\	hoc	.	.	.	.
.	.	.	4A/	.	.	.	.	.	.	.	.	.	.	.	.	.	.
.	.	.	4A/	.	.	.	.	.	.	8f#\L	be-	8dd\L	be-	.	.	.	.
.	.	.	.	.	.	.	.	.	.	8g\J	.	8ee\J	.	.	.	.	.
!	!	!	!	!	!	!	!	!	!	!	!	!LO:LB:g=original	!	!	!	!	!
=50	=50	=50	=50	=50	=50	=50	=50	=50	=50	=50	=50	=50	=50	=50	=50	=50	=50
1r	.	.	4A/	.	1ryy	1r	.	1r	.	8g\L	-a-	8ee\L	-a-	1r	1r	1ryy	1ryy
.	.	.	.	.	.	.	.	.	.	8f#\	.	8dd\	.	.	.	.	.
.	.	.	4A/	.	.	.	.	.	.	8f#\	.	8dd\	.	.	.	.	.
.	.	.	.	.	.	.	.	.	.	8e\J	.	8cc#\J	.	.	.	.	.
.	.	.	4d/	.	.	.	.	.	.	4f#\	-tam	4dd\	-tam	.	.	.	.
.	.	.	4r	.	.	.	.	.	.	4r	.	4r	.	.	.	.	.
!	!	!	!LO:LB:g=original	!	!	!	!	!	!	!	!	!	!	!	!	!	!
=51	=51	=51	=51	=51	=51	=51	=51	=51	=51	=51	=51	=51	=51	=51	=51	=51	=51
*	*	*	*^	*	*	*	*	*	*	*	*	*	*	*	*	*	*
!	!	!LO:DY:rj:t=p&colon;	!	!	!	!	!LO:TX:t=P:problem=brak taktu	!	!LO:TX:t=P:problem=brak taktu	!	!	!	!	!	!	!	!	!
2C#/	6 5	p	2a/	2g\	.	1ryy	1ryy	.	1ryy	.	1r	.	2ee\	me	4a/	4ee\	1ryy	1ryy
.	.	.	.	.	.	.	.	.	.	.	.	.	.	.	8a/L	8ee\L	.	.
.	.	.	.	.	.	.	.	.	.	.	.	.	.	.	8a/J	8ee\J	.	.
4D\	.	.	4a/	4f#\	.	.	.	.	.	.	.	.	4ff#\	di-	4dd\	4ff#\	.	.
!	!	!LO:DY:t=f&colon;	!	!	!	!	!	!	!	!	!	!	!	!	!	!	!	!
4r	.	f	4ryy	4r	.	.	.	.	.	.	.	.	4dd\	-cent	4r	4r	.	.
=52	=52	=52	=52	=52	=52	=52	=52	=52	=52	=52	=52	=52	=52	=52	=52	=52	=52	=52
!	!	!	!	!	!LO:DY:t=f&colon;	!	!	!	!	!	!	!	!	!	!	!	!	!
2G\	4 2	.	2a/	2e\	f	1ryy	2G\	om-	2A\	om-	2e\	om-	2cc#\	om-	1r	1r	1ryy	1ryy
4F#\	6	.	4a/	4f#\	.	.	4F#\	-nes	4A\	-nes	4f#\	-nes	4dd\	-nes	.	.	.	.
4r	.	.	4ryy	4r	.	.	4r	.	4r	.	4r	.	4r	.	.	.	.	.
=53	=53	=53	=53	=53	=53	=53	=53	=53	=53	=53	=53	=53	=53	=53	=53	=53	=53	=53
*	*	*	*	*	*	*	*	*	*	*	*	*	*	*ij	*	*	*	*
!	!	!LO:DY:rj:t=p&colon;	!	!	!LO:DY:t=p&colon;	!	!	!	!	!	!	!	!	!	!	!	!	!
2C#/	6 5	p	2a/	2g\	p	1ryy	1r	.	1r	.	1r	.	2ee\	me	4a/	4ee\	1ryy	1ryy
.	.	.	.	.	.	.	.	.	.	.	.	.	.	.	8a/L	8ee\L	.	.
.	.	.	.	.	.	.	.	.	.	.	.	.	.	.	8a/J	8ee\J	.	.
4D\	.	.	4a/	4f#\	.	.	.	.	.	.	.	.	4ff#\	di-	4dd\	4ff#\	.	.
4ryy	.	.	4r	4ryy	.	.	.	.	.	.	.	.	4dd\	-cent	4r	4r	.	.
!	!	!	!	!	!	!	!	!	!LO:LB:g=original	!	!	!	!	!	!	!	!	!
=54	=54	=54	=54	=54	=54	=54	=54	=54	=54	=54	=54	=54	=54	=54	=54	=54	=54	=54
*	*	*	*	*	*	*	*	*ij	*	*	*	*ij	*	*	*	*	*	*
!	!	!LO:DY:rj:t=f&colon;	!	!	!LO:DY:t=f&colon;	!	!	!	!	!	!	!	!	!	!LO:TX:a:t=2:color=grey	!	!	!
2G\	4 2	f	2a/	2e\	f	1ryy	2G\	om-	2A\	om-	2e\	om-	2cc#\	om-	0r	0r	1ryy	1ryy
4F#\	6	.	4a/	4f#\	.	.	4F#\	-nes	4A\	-nes	4f#\	-nes	4dd\	-nes	.	.	.	.
*	*	*	*	*	*	*	*	*Xij	*	*	*	*Xij	*	*Xij	*	*	*	*
4d\	.	.	4a/	4ryy	.	.	4d\	ge-	4d\	ge-	4a\	ge-	4ff#\	ge-	.	.	.	.
*	*	*	*v	*v	*	*	*	*	*	*	*	*	*	*	*	*	*	*
=55	=55	=55	=55	=55	=55	=55	=55	=55	=55	=55	=55	=55	=55	=55	=55	=55	=55
8c#\L	6 5	.	4a/	.	1ryy	8c#\L	.	8e\	.	4a\	.	8gg\	.	.	.	1ryy	1ryy
8d\	.	.	.	.	.	8d\J	.	4d\	.	.	.	4ff#\	.	.	.	.	.
8B\	6 5	.	4g/	.	.	8B\L	-ne-	.	.	4g\	-ne-	.	.	.	.	.	.
8c#\J	.	.	.	.	.	8c#\J	.	4c#\	.	.	.	4ee\	.	.	.	.	.
8A\L	6 5	.	4f#/	.	.	8A\L	-ra-	.	.	4f#\	-ra-	.	.	.	.	.	.
!	!	!	!	!	!	!	!	!	!	!	!	!LO:LB:g=original	!	!	!	!	!
8B\	.	.	.	.	.	8B\J	.	4B\	.	.	.	4dd\	.	.	.	.	.
8G\	6 5	.	4e/	.	.	8G\L	-ti-	.	.	4e\	-ti-	.	.	.	.	.	.
8A\J	.	.	.	.	.	8A\J	.	8A\	-ne-	.	.	8cc#\	-ne-	.	.	.	.
!	!	!	!	!	!	!LO:LB:g=original	!	!	!	!LO:LB:g=original	!	!	!	!	!LO:PB:g=original	!	!
=56	=56	=56	=56	=56	=56	=56	=56	=56	=56	=56	=56	=56	=56	=56	=56	=56	=56
8D\L	.	.	4f#/	.	1ryy	8D\L	-o-	8A\	-ra-	4f#\	-o-	8dd\	-ra-	8r	8r	1ryy	1ryy
8F#\	6	.	.	.	.	8F#\	.	8A\	-ti-	.	.	8dd\	-ti-	8dd\L	8ff#\L	.	.
8G\	6	.	8g/L	.	.	8G\	.	4B\	-o-	8g\L	.	8ee\L	-o-	8ee\	8gg\	.	.
8G#X\J	5	.	8f#/J	.	.	8G#X\J	.	.	.	8f#\J	.	8dd\J	.	8dd\J	8ff#\J	.	.
8A\L	.	.	4e/	.	.	4A\	-nes	4A\	-nes	4e\	-nes	4cc#\	-nes	4a/	4ee\	.	.
8Gn\	.	.	.	.	.	.	.	.	.	.	.	.	.	.	.	.	.
8F#\	.	.	4r	.	.	4r	.	4r	.	4r	.	4r	.	4r	4ryy	.	.
8E\J	.	.	.	.	.	.	.	.	.	.	.	.	.	.	.	.	.
!LO:LB:g=original	!	!	!	!	!	!	!	!	!	!	!	!	!	!LO:PB:g=original	!	!	!
=57	=57	=57	=57	=57	=57	=57	=57	=57	=57	=57	=57	=57	=57	=57	=57	=57	=57
!LO:TX:a:i:t=tut&colon;	!	!	!	!	!	!	!	!	!	!	!	!	!	!	!	!	!
8D\L	.	.	16f#/LL	.	1ryy	2D\	qvi-	2A\	qvi-	2f#\	qvi-	2dd\	qvi-	4dd\	4ff#\	1ryy	1ryy
.	.	.	16a/	.	.	.	.	.	.	.	.	.	.	.	.	.	.
8D\	.	.	16f#/	.	.	.	.	.	.	.	.	.	.	.	.	.	.
.	.	.	16a/JJ	.	.	.	.	.	.	.	.	.	.	.	.	.	.
8D\	.	.	16f#/LL	.	.	.	.	.	.	.	.	.	.	4r	4r	.	.
.	.	.	16a/	.	.	.	.	.	.	.	.	.	.	.	.	.	.
8D\J	.	.	16f#/	.	.	.	.	.	.	.	.	.	.	.	.	.	.
.	.	.	16a/JJ	.	.	.	.	.	.	.	.	.	.	.	.	.	.
*tremolo	*	*	*tremolo	*	*	*	*	*	*	*	*	*	*	*	*	*	*
8D\L	.	.	16f#/LL	.	.	2D\	-a	2A\	-a	2f#\	-a	2dd\	-a	4dd\	4ff#\	.	.
.	.	.	16a/	.	.	.	.	.	.	.	.	.	.	.	.	.	.
8D\	.	.	16f#/	.	.	.	.	.	.	.	.	.	.	.	.	.	.
.	.	.	16a/	.	.	.	.	.	.	.	.	.	.	.	.	.	.
8D\	.	.	16f#/	.	.	.	.	.	.	.	.	.	.	8dd\L	8ff#\L	.	.
.	.	.	16a/	.	.	.	.	.	.	.	.	.	.	.	.	.	.
8D\J	.	.	16f#/	.	.	.	.	.	.	.	.	.	.	8dd\J	8ff#\J	.	.
.	.	.	16a/JJ	.	.	.	.	.	.	.	.	.	.	.	.	.	.
=58	=58	=58	=58	=58	=58	=58	=58	=58	=58	=58	=58	=58	=58	=58	=58	=58	=58
8D\L	.	.	16f#/LL	.	1ryy	2D\	fe-	2A\	fe-	2f#\	fe-	2dd\	fe-	4dd\	4ff#\	1ryy	1ryy
.	.	.	16a/	.	.	.	.	.	.	.	.	.	.	.	.	.	.
8D\	.	.	16f#/	.	.	.	.	.	.	.	.	.	.	.	.	.	.
.	.	.	16a/	.	.	.	.	.	.	.	.	.	.	.	.	.	.
8D\	.	.	16f#/	.	.	.	.	.	.	.	.	.	.	4r	4r	.	.
.	.	.	16a/	.	.	.	.	.	.	.	.	.	.	.	.	.	.
8D\J	.	.	16f#/	.	.	.	.	.	.	.	.	.	.	.	.	.	.
.	.	.	16a/JJ	.	.	.	.	.	.	.	.	.	.	.	.	.	.
8D\L	.	.	16f#/LL	.	.	2D\	-cit	2A\	-cit	2f#\	-cit	2dd\	-cit	4dd\	4ff#\	.	.
.	.	.	16a/	.	.	.	.	.	.	.	.	.	.	.	.	.	.
8D\	.	.	16f#/	.	.	.	.	.	.	.	.	.	.	.	.	.	.
.	.	.	16a/	.	.	.	.	.	.	.	.	.	.	.	.	.	.
8D\	.	.	16f#/	.	.	.	.	.	.	.	.	.	.	4dd\	4ff#\	.	.
.	.	.	16a/	.	.	.	.	.	.	.	.	.	.	.	.	.	.
8D\J	.	.	16f#/	.	.	.	.	.	.	.	.	.	.	.	.	.	.
.	.	.	16a/JJ	.	.	.	.	.	.	.	.	.	.	.	.	.	.
*	*	*	*Xtremolo	*	*	*	*	*	*	*	*	*	*	*	*	*	*
!	!	!	!LO:LB:g=original	!	!	!	!	!LO:LB:g=original	!	!	!	!	!	!	!	!	!
=59	=59	=59	=59	=59	=59	=59	=59	=59	=59	=59	=59	=59	=59	=59	=59	=59	=59
8C#/L	6_ 5_	.	16e/LL	.	1ryy	2C#/	mi-	2A\	mi-	2g\	mi-	2ee\	mi-	4a/	4ee\	1ryy	1ryy
.	.	.	16a/	.	.	.	.	.	.	.	.	.	.	.	.	.	.
8C#/	.	.	16e/	.	.	.	.	.	.	.	.	.	.	.	.	.	.
.	.	.	16a/JJ	.	.	.	.	.	.	.	.	.	.	.	.	.	.
8C#/	.	.	16e/LL	.	.	.	.	.	.	.	.	.	.	4r	4r	.	.
.	.	.	16a/	.	.	.	.	.	.	.	.	.	.	.	.	.	.
8C#/J	.	.	16e/	.	.	.	.	.	.	.	.	.	.	.	.	.	.
.	.	.	16a/JJ	.	.	.	.	.	.	.	.	.	.	.	.	.	.
*	*	*	*tremolo	*	*	*	*	*	*	*	*	*	*	*	*	*	*
8C#/L	.	.	16e/LL	.	.	2C#/	-hi	2A\	-hi	2g\	-hi	2ee\	-hi	4a/	4dd\	.	.
.	.	.	16a/	.	.	.	.	.	.	.	.	.	.	.	.	.	.
8C#/	.	.	16e/	.	.	.	.	.	.	.	.	.	.	.	.	.	.
.	.	.	16a/	.	.	.	.	.	.	.	.	.	.	.	.	.	.
8C#/	.	.	16e/	.	.	.	.	.	.	.	.	.	.	8a/L	8ee\L	.	.
.	.	.	16a/	.	.	.	.	.	.	.	.	.	.	.	.	.	.
8C#/J	.	.	16e/	.	.	.	.	.	.	.	.	.	.	8a/J	8ee\J	.	.
.	.	.	16a/JJ	.	.	.	.	.	.	.	.	.	.	.	.	.	.
=60	=60	=60	=60	=60	=60	=60	=60	=60	=60	=60	=60	=60	=60	=60	=60	=60	=60
8C#/L	X X	.	16e/LL	.	1ryy	2C#/	ma-	2A\	ma-	2g\	ma-	2ee\	ma-	4a/	4ee\	1ryy	1ryy
.	.	.	16a/	.	.	.	.	.	.	.	.	.	.	.	.	.	.
8C#/	.	.	16e/	.	.	.	.	.	.	.	.	.	.	.	.	.	.
.	.	.	16a/	.	.	.	.	.	.	.	.	.	.	.	.	.	.
8C#/	.	.	16e/	.	.	.	.	.	.	.	.	.	.	4r	4r	.	.
.	.	.	16a/	.	.	.	.	.	.	.	.	.	.	.	.	.	.
8C#/J	.	.	16e/	.	.	.	.	.	.	.	.	.	.	.	.	.	.
.	.	.	16a/JJ	.	.	.	.	.	.	.	.	.	.	.	.	.	.
8C#/L	.	.	16e/LL	.	.	4C#/	-gna	4A\	-gna	4g\	-gna	4ee\	-gna	4a/	4ee\	.	.
.	.	.	16a/	.	.	.	.	.	.	.	.	.	.	.	.	.	.
8C#/	.	.	16e/	.	.	.	.	.	.	.	.	.	.	.	.	.	.
.	.	.	16a/	.	.	.	.	.	.	.	.	.	.	.	.	.	.
8C#/	.	.	16e/	.	.	4C#/	qvi	4A\	gvi	4g\	qvi	4ee\	qvi	4a/	4ee\	.	.
.	.	.	16a/	.	.	.	.	.	.	.	.	.	.	.	.	.	.
8C#/J	.	.	16e/	.	.	.	.	.	.	.	.	.	.	.	.	.	.
.	.	.	16a/JJ	.	.	.	.	.	.	.	.	.	.	.	.	.	.
!	!	!	!	!	!	!	!	!	!	!	!	!LO:LB:g=original	!	!	!	!	!
=61	=61	=61	=61	=61	=61	=61	=61	=61	=61	=61	=61	=61	=61	=61	=61	=61	=61
8D\L	.	.	16f#/LL	.	1ryy	2D\	po-	2A\	po-	2f#\	po-	2dd\	po-	4f#/	4dd\	1ryy	1ryy
.	.	.	16f#/	.	.	.	.	.	.	.	.	.	.	.	.	.	.
8D\	.	.	16f#/	.	.	.	.	.	.	.	.	.	.	.	.	.	.
.	.	.	16f#/	.	.	.	.	.	.	.	.	.	.	.	.	.	.
8D\	.	.	16f#/	.	.	.	.	.	.	.	.	.	.	8d/L	8dd\L	.	.
.	.	.	16f#/	.	.	.	.	.	.	.	.	.	.	.	.	.	.
8D\J	.	.	16f#/	.	.	.	.	.	.	.	.	.	.	8d/J	8dd\J	.	.
.	.	.	16f#/JJ	.	.	.	.	.	.	.	.	.	.	.	.	.	.
8D\L	.	.	16f#/LL	.	.	2D\	-tens	2d\	-tens	2f#\	-tens	2dd\	-tens	4d/	4dd\	.	.
.	.	.	16f#/	.	.	.	.	.	.	.	.	.	.	.	.	.	.
8D\	.	.	16f#/	.	.	.	.	.	.	.	.	.	.	.	.	.	.
.	.	.	16f#/	.	.	.	.	.	.	.	.	.	.	.	.	.	.
8D\	.	.	16f#/	.	.	.	.	.	.	.	.	.	.	4r	4r	.	.
.	.	.	16f#/	.	.	.	.	.	.	.	.	.	.	.	.	.	.
8D\J	.	.	16f#/	.	.	.	.	.	.	.	.	.	.	.	.	.	.
.	.	.	16f#/JJ	.	.	.	.	.	.	.	.	.	.	.	.	.	.
!	!	!	!	!	!	!	!	!	!	!	!	!	!	!	!LO:LB:g=original	!	!
=62	=62	=62	=62	=62	=62	=62	=62	=62	=62	=62	=62	=62	=62	=62	=62	=62	=62
8D\L	7_ 4_ 2_	.	16e/LL	.	1ryy	4D\	eſt	4c#\	eſt	4g\	eſt	4ee\	eſt	4d/	4dd\	1ryy	1ryy
.	.	.	16e/	.	.	.	.	.	.	.	.	.	.	.	.	.	.
8D\	.	.	16e/	.	.	.	.	.	.	.	.	.	.	.	.	.	.
.	.	.	16e/	.	.	.	.	.	.	.	.	.	.	.	.	.	.
!	!	!	!	!	!	!LO:LB:g=original	!	!	!	!	!	!	!	!	!	!	!
8D\	.	.	16e/	.	.	4D\	&	4c#\	&	4g\	&	4ee\	&	8d/L	8dd\L	.	.
.	.	.	16e/	.	.	.	.	.	.	.	.	.	.	.	.	.	.
8D\J	.	.	16e/	.	.	.	.	.	.	.	.	.	.	8d/J	8dd\J	.	.
.	.	.	16e/JJ	.	.	.	.	.	.	.	.	.	.	.	.	.	.
!	!	!	!	!	!	!	!	!	!	!LO:LB:g=original	!	!	!	!	!	!	!
8D\L	.	.	16e/LL	.	.	4D\	San-	4c#\	San-	4g\	San-	4ee\	San-	4d/	4dd\	.	.
.	.	.	16e/	.	.	.	.	.	.	.	.	.	.	.	.	.	.
8D\	.	.	16e/	.	.	.	.	.	.	.	.	.	.	.	.	.	.
.	.	.	16e/	.	.	.	.	.	.	.	.	.	.	.	.	.	.
8D\	.	.	16e/	.	.	4D\	-ctum	4c#\	-ctum	4g\	-ctum	4ee\	-ctum	4r	4r	.	.
.	.	.	16e/	.	.	.	.	.	.	.	.	.	.	.	.	.	.
8D\J	.	.	16e/	.	.	.	.	.	.	.	.	.	.	.	.	.	.
.	.	.	16e/JJ	.	.	.	.	.	.	.	.	.	.	.	.	.	.
=63	=63	=63	=63	=63	=63	=63	=63	=63	=63	=63	=63	=63	=63	=63	=63	=63	=63
8D\L	x 5_ 3_	.	16f#/LL	.	1ryy	2D\	no-	2d\	no-	2f#\	no-	2dd\	no-	4d/	4dd\	1ryy	1ryy
.	.	.	16f#/	.	.	.	.	.	.	.	.	.	.	.	.	.	.
8D\	.	.	16f#/	.	.	.	.	.	.	.	.	.	.	.	.	.	.
.	.	.	16f#/	.	.	.	.	.	.	.	.	.	.	.	.	.	.
8D\	.	.	16f#/	.	.	.	.	.	.	.	.	.	.	8d/L	8dd\L	.	.
.	.	.	16f#/	.	.	.	.	.	.	.	.	.	.	.	.	.	.
8D\J	.	.	16f#/	.	.	.	.	.	.	.	.	.	.	8d/J	8dd\J	.	.
.	.	.	16f#/JJ	.	.	.	.	.	.	.	.	.	.	.	.	.	.
8D\L	.	.	16f#/LL	.	.	2D\	-men	2d\	-men	2f#\	-men	2dd\	-men	4d/	4dd\	.	.
.	.	.	16f#/	.	.	.	.	.	.	.	.	.	.	.	.	.	.
8D\	.	.	16f#/	.	.	.	.	.	.	.	.	.	.	.	.	.	.
.	.	.	16f#/	.	.	.	.	.	.	.	.	.	.	.	.	.	.
8D\	.	.	16f#/	.	.	.	.	.	.	.	.	.	.	4r	4r	.	.
.	.	.	16f#/	.	.	.	.	.	.	.	.	.	.	.	.	.	.
8D\J	.	.	16f#/	.	.	.	.	.	.	.	.	.	.	.	.	.	.
.	.	.	16f#/JJ	.	.	.	.	.	.	.	.	.	.	.	.	.	.
!	!	!	!	!	!	!	!	!	!	!	!	!	!	!LO:LB:g=original	!	!	!
=64	=64	=64	=64	=64	=64	=64	=64	=64	=64	=64	=64	=64	=64	=64	=64	=64	=64
8D\L	7_ 4_ 2_	.	16e/LL	.	1ryy	1D	e-	1c#	e-	1g	e-	1ee	e-	4d/	4dd\	1ryy	1ryy
.	.	.	16e/	.	.	.	.	.	.	.	.	.	.	.	.	.	.
8D\	.	.	16e/	.	.	.	.	.	.	.	.	.	.	.	.	.	.
.	.	.	16e/	.	.	.	.	.	.	.	.	.	.	.	.	.	.
8D\	.	.	16e/	.	.	.	.	.	.	.	.	.	.	8d/L	8dd\L	.	.
.	.	.	16e/	.	.	.	.	.	.	.	.	.	.	.	.	.	.
8D\J	.	.	16e/	.	.	.	.	.	.	.	.	.	.	8d/J	8dd\J	.	.
.	.	.	16e/JJ	.	.	.	.	.	.	.	.	.	.	.	.	.	.
8D\L	.	.	16e/LL	.	.	.	.	.	.	.	.	.	.	4d/	4dd\	.	.
.	.	.	16e/	.	.	.	.	.	.	.	.	.	.	.	.	.	.
8D\	.	.	16e/	.	.	.	.	.	.	.	.	.	.	.	.	.	.
.	.	.	16e/	.	.	.	.	.	.	.	.	.	.	.	.	.	.
8D\	.	.	16e/	.	.	.	.	.	.	.	.	.	.	4d/	4dd\	.	.
.	.	.	16e/	.	.	.	.	.	.	.	.	.	.	.	.	.	.
8D\J	.	.	16e/	.	.	.	.	.	.	.	.	.	.	.	.	.	.
.	.	.	16e/JJ	.	.	.	.	.	.	.	.	.	.	.	.	.	.
*Xtremolo	*	*	*Xtremolo	*	*	*	*	*	*	*	*	*	*	*	*	*	*
=65	=65	=65	=65	=65	=65	=65	=65	=65	=65	=65	=65	=65	=65	=65	=65	=65	=65
4D\	x 5_ 3_	.	4f#/	.	1r	4D\	-jus	4d\	-jus	4f#\	-jus	4dd\	-jus	4d/	4dd\	1ryy	1ryy
4D\	.	.	4dd 4f#\	.	.	4r	.	4r	.	4r	.	4r	.	4f#/	4dd\	.	.
4D\	X X X	.	4dd 4f#\	.	.	2r	.	2r	.	2r	.	2r	.	4f#/	4dd\	.	.
4r	.	.	4r	.	.	.	.	.	.	.	.	.	.	4r	4r	.	.
==	==	==	==	==	==	==	==	==	==	==	==	==	==	==	==	==	==
*-	*-	*-	*-	*-	*-	*-	*-	*-	*-	*-	*-	*-	*-	*-	*-	*-	*-
!!!system-decoration: [(g1)][(g2)][(g3)][(g4)]s11
!!!RDF**kern: | = vertical stroke
!!!AIN: 1 alto 1 bass 2 cor 2 flt 1 organ 1 soprn 1 tenor 2 violn
!!!ENC: Mateusz Solarz
!!!END: 2020-07-17
!!!ENC: Marta Lawrence
!!!END: 2021-01-14
